X:1
T:Title
%%score { ( 1 2 ) | 3 }
L:1/8
Q:1/4=81
M:6/8
K:Bb
V:1 treble nm="Grand Piano"
V:2 treble 
V:3 bass 
V:1
 [B,DF][CEF][A,CF] [B,F]->[B,EF]F | G>GG .F3 | BBB d2 [DFB] | [CEc][DB][CEA] .[B,DB]3 | z3 .F3 | %5
w: Thoro~Harris * * * * *|||||
 [G,EG]>[GB][G,EG] .[B,DF]3 |[M:7/8] [B,DB][B,DB][B,GB] [^Fd]3 =B |[M:3/4] c[CEG] [CEA] .[B,DB]3 | %8
w: |||
 FF B,G GB, | BG B .F3 | CC D E2 [A,EG] | [A,EG][B,DF][K:bass] [F,CE] .D3 | %12
w: ||||
[M:7/8][K:treble] Bc_d =d3 [FB][Q:1/4=78][Q:1/4=76][Q:1/4=73][Q:1/4=71][Q:1/4=68][Q:1/4=66][Q:1/4=63] | %13
w: |
[M:3/4] c>F c .[DB]3 |] %14
w: |
V:2
 z3 .D3 | x6 | x6 | x6 | [B,DF][B,F][A,EF] [B,D]>[A,C][_A,B,F] | x6 |[M:7/8] x7 |[M:3/4] x6 | x6 | %9
 x6 | x6 | x2[K:bass] x4 |[M:7/8][K:treble] x7 |[M:3/4] x6 |] %14
V:3
 B,,A,,F,, B,,>C,[D,B,] | [E,B,E]>[F,B,][G,B,E] .[B,D]3 | [G,B,D][^F,CE][F,_D=E] [=F,=DF]2 D, | %3
 E,F,F, .B,,3 | B,,D,F, B,,>C,D, | E,>E,E, .B,,3 |[M:7/8] G,G,G, [D,A,]3 [G,F] | %7
[M:3/4] [E,G,E]C, F, .B,,3 | DD B,,E EE, | [G,D][E,G,B,] [E,^F,C] .[D,=F,D]3 | %10
 [F,A,][E,F,A,] [D,F,B,] [C,F,C]2 F,, | F,,G,, A,, .[B,,F,B,]3 | %12
[M:7/8] [G,B,D][^F,B,E][F,B,=E] [=F,B,F]3 [D,B,] |[M:3/4] [E,G,C]>F, [F,A,E] .[B,,B,]3 |] %14

